X:0426
T:The Prince's welcome to the Isle of Sky.
T:For the Violin
M:C
L:1/8
Q:1/2=90 "Moderato"
I: :: :: :: ::
Z:Jack Campin * www.campin.me.uk * 2009
K:D
 dB |A2D2 (GF)(ED)|A2D2 GFED|B2E2  E>FG>A  |B2E2 E>FGB|
     BAGF  d2  cB |BAGF GFED|FEDB, A,>B,DE|F2D2 D2  ::
(de)|f2df  e2  ce |d2Bd BAGF|B2E2  EFGA   |B2E2 EFGg |
     fedf  edBe   |dBAd BAGF|GFED  A,B,DE |F2D2 D2  ::
 ag |f2d2  fgag   |f2d2 fgaf|g2e2  efga   |b2e2 e2ag |
     f2d2  fgag   |f2d2 fgad|ABde  faeg   |f2d2 d2  ::
 g2 |fedf  edBe   |dBAd BAGF|BEeE  EFGA   |BEeE EFGg |
     fedf  edBe   |dBAd BAGF|GFED  A,B,DE |F2D2 D2  :|

